symbolic/16x16/apps/appimagekit-org.cryptomator.Cryptomator.svg

<svg xmlns="http://www.w3.org/2000/svg" width="16" height="16" version="1.1">
 <path style="fill:#c8c8c8" d="M 8,1e-7 C 4.7784341,1e-7 3.0000001,2.6986459 3.0000001,5.3333334 H 13 C 13,2.6986459 10.993332,1e-7 8,1e-7 Z"/>
 <path style="fill:#585e62" d="M 8.0000001,1.9737873 C 6.0671173,1.9737873 5,3.5885018 5,5.1649749 L 8.0000001,5.5 11,5.1649749 C 11,3.5885018 9.7959762,1.9737873 8.0000001,1.9737873 Z"/>
 <path style="fill:#b2bfd9" d="m 13.792871,8.4372407 a 1.6370657,1.5653802 0 0 1 -0.01096,-0.8536396 c 0.288573,-0.9946023 0.09906,-2.09254 0.09906,-2.09254 -3.623197,-1.081464 -5.8757774,-0.00899 -5.8757774,-0.00899 0,0 -2.247295,-1.0790306 -5.8732329,-0.00842 0,0 -0.1930335,1.0977503 0.092405,2.0934759 A 1.6384362,1.5666907 0 0 1 2.2108541,8.420581 C 2.1102276,8.7494924 2.0009851,9.2536267 2.0000067,9.8957282 1.9927641,14.557049 7.9907045,16 7.9907045,16 7.9907045,16 13.992757,14.574459 14,9.9129508 14,9.2708489 13.89252,8.7670895 13.792871,8.4372407 Z"/>
 <path style="fill:#49b04a" d="M 5.7597656 7.0527344 C 5.2966654 7.0818955 4.6793445 7.1983196 4.1464844 7.2539062 C 4.2689499 7.838684 4.2981736 8.4460591 4.1191406 9.0175781 L 4.1230469 9.0058594 C 4.0712109 9.1752923 4.0006352 9.4815838 4 9.8984375 C 3.9977121 11.370949 4.8745206 12.258495 6.0585938 13.003906 C 7.0142413 13.605516 7.6548457 13.75208 7.9960938 13.851562 C 8.3392471 13.752496 8.9758032 13.607601 9.9316406 13.009766 C 11.117442 12.268097 11.996863 11.383514 12 9.9121094 C 12 9.5013517 11.934191 9.2024234 11.882812 9.0292969 C 11.705152 8.4568015 11.734895 7.8485054 11.859375 7.2636719 C 11.149438 7.1876204 10.290101 7.0060541 9.84375 7.0644531 C 9.0764486 7.164844 8.8652344 7.2871094 8.8652344 7.2871094 L 8.0019531 7.6992188 L 7.1386719 7.2851562 C 7.1386719 7.2851562 6.9283849 7.1612086 6.1621094 7.0585938 C 6.0505992 7.043661 5.9141324 7.043014 5.7597656 7.0527344 z"/>
 <path style="fill:#35393b" d="M 8,9.1060602 7.0000001,12.015151 7.9995526,12.5 9,12.015151 Z"/>
 <circle style="fill:#35393b" cx="8" cy="9" r="1"/>
</svg>

<svg xmlns="http://www.w3.org/2000/svg" width="16" height="16"><path style="fill:#c8c8c8" d="M8 0C4.778 0 3 2.699 3 5.333h10C13 2.7 10.993 0 8 0z"/><path style="fill:#585e62" d="M8 1.974c-1.933 0-3 1.615-3 3.191L8 5.5l3-.335c0-1.576-1.204-3.191-3-3.191z"/><path style="fill:#b2bfd9" d="M13.793 8.437a1.637 1.565 0 0 1-.011-.853c.288-.995.099-2.093.099-2.093-3.623-1.081-5.876-.009-5.876-.009s-2.247-1.079-5.873-.008c0 0-.193 1.097.092 2.093a1.638 1.567 0 0 1-.013.854c-.1.328-.21.833-.211 1.475C1.993 14.557 7.99 16 7.99 16s6.003-1.426 6.01-6.087c0-.642-.107-1.146-.207-1.476z"/><path style="fill:#49b04a" d="M5.76 7.053c-.463.029-1.08.145-1.614.2.123.586.152 1.193-.027 1.765l.004-.012c-.052.17-.122.476-.123.892-.002 1.473.875 2.36 2.059 3.106.955.602 1.596.748 1.937.848.343-.1.98-.244 1.936-.842 1.185-.742 2.065-1.626 2.068-3.098 0-.41-.066-.71-.117-.883-.178-.572-.148-1.18-.024-1.765-.71-.076-1.569-.258-2.015-.2-.768.1-.979.223-.979.223l-.863.412-.863-.414s-.21-.124-.977-.226a2.127 2.127 0 0 0-.402-.006z"/><path style="fill:#35393b" d="m8 9.106-1 2.91 1 .484 1-.485z"/><circle style="fill:#35393b" cx="8" cy="9" r="1"/></svg>
